packages/credential/logos/dc-white.svg

<svg width="24" height="24" viewBox="0 0 24 24" fill="none" xmlns="http://www.w3.org/2000/svg">
    <path
        d="M17.5447 6.75695C16.5249 6.2746 15.4313 5.91923 14.2879 5.7157C14.2671 5.71177 14.2463 5.72159 14.2356 5.74122C14.0949 5.99907 13.9392 6.33546 13.8301 6.59987C12.6003 6.41008 11.3768 6.41008 10.1722 6.59987C10.0631 6.32959 9.90166 5.99907 9.76038 5.74122C9.74966 5.72224 9.72886 5.71242 9.70803 5.7157C8.56527 5.91858 7.47171 6.27395 6.45129 6.75695C6.44246 6.76087 6.43488 6.76742 6.42986 6.77593C4.35559 9.97035 3.78737 13.0863 4.06612 16.1635C4.06738 16.1786 4.07558 16.193 4.08693 16.2021C5.45547 17.2381 6.78114 17.8671 8.08219 18.284C8.10301 18.2905 8.12507 18.2827 8.13832 18.265C8.44608 17.8318 8.72043 17.375 8.95565 16.8946C8.96953 16.8664 8.95628 16.833 8.92791 16.8219C8.49275 16.6518 8.0784 16.4443 7.67982 16.2087C7.64829 16.1897 7.64577 16.1432 7.67477 16.121C7.75865 16.0562 7.84255 15.9888 7.92264 15.9207C7.93713 15.9083 7.95732 15.9057 7.97435 15.9135C10.5929 17.1459 13.4277 17.1459 16.0153 15.9135C16.0323 15.905 16.0525 15.9076 16.0677 15.9201C16.1478 15.9881 16.2316 16.0562 16.3161 16.121C16.3451 16.1432 16.3433 16.1897 16.3117 16.2087C15.9131 16.4489 15.4988 16.6518 15.063 16.8213C15.0346 16.8324 15.022 16.8664 15.0359 16.8946C15.2762 17.3743 15.5505 17.8311 15.8526 18.2644C15.8652 18.2827 15.8879 18.2905 15.9087 18.284C17.2161 17.8671 18.5417 17.2381 19.9103 16.2021C19.9223 16.193 19.9298 16.1792 19.9311 16.1642C20.2647 12.6065 19.3723 9.51616 17.5655 6.77658C17.5611 6.76742 17.5535 6.76087 17.5447 6.75695ZM9.34668 14.2898C8.55833 14.2898 7.90876 13.5437 7.90876 12.6275C7.90876 11.7112 8.54574 10.9651 9.34668 10.9651C10.1539 10.9651 10.7972 11.7178 10.7846 12.6275C10.7846 13.5437 10.1476 14.2898 9.34668 14.2898ZM14.6632 14.2898C13.8748 14.2898 13.2253 13.5437 13.2253 12.6275C13.2253 11.7112 13.8622 10.9651 14.6632 10.9651C15.4704 10.9651 16.1137 11.7178 16.1011 12.6275C16.1011 13.5437 15.4704 14.2898 14.6632 14.2898Z"
        fill="white" />
</svg>

<svg width="24" height="24" fill="none" xmlns="http://www.w3.org/2000/svg"><path d="M17.545 6.757a12.908 12.908 0 0 0-3.257-1.041.049.049 0 0 0-.052.025c-.141.258-.297.594-.406.859a11.82 11.82 0 0 0-3.658 0c-.109-.27-.27-.6-.412-.859a.05.05 0 0 0-.052-.025 12.872 12.872 0 0 0-3.257 1.04.047.047 0 0 0-.021.02c-2.074 3.194-2.643 6.31-2.364 9.387.001.016.01.03.02.04a13.12 13.12 0 0 0 3.996 2.081.05.05 0 0 0 .056-.019 9.83 9.83 0 0 0 .818-1.37.053.053 0 0 0-.028-.073 8.618 8.618 0 0 1-1.248-.613.054.054 0 0 1-.005-.088c.084-.065.168-.132.248-.2a.048.048 0 0 1 .051-.007c2.619 1.232 5.454 1.232 8.041 0a.048.048 0 0 1 .053.006c.08.068.164.136.248.201a.054.054 0 0 1-.004.088 8.09 8.09 0 0 1-1.249.612.053.053 0 0 0-.027.074c.24.48.514.936.817 1.37a.05.05 0 0 0 .056.019 13.075 13.075 0 0 0 4.001-2.082.053.053 0 0 0 .021-.038c.334-3.558-.559-6.648-2.366-9.387a.041.041 0 0 0-.02-.02zM9.347 14.29c-.789 0-1.438-.746-1.438-1.662 0-.917.637-1.663 1.438-1.663.807 0 1.45.753 1.438 1.662 0 .917-.637 1.663-1.438 1.663zm5.316 0c-.788 0-1.438-.746-1.438-1.662 0-.917.637-1.663 1.438-1.663.807 0 1.45.753 1.438 1.662 0 .917-.63 1.663-1.438 1.663z" fill="#fff"/></svg>
